X:1
T:Contrapuctus VI a 4 in Stylo Francese (A = 415 Hz)
T:BWV 1080 The Art of Fugue
T:J. S. Bach
%%score { ( 1 3 ) | 2 } { 4 | 5 }
L:1/8
Q:1/4=96
M:2/2
K:E
V:1 alto1 nm="Harp"
V:3 alto1 
V:2 alto 
V:4 tenor nm="Harp"
V:5 bass 
V:1
"^Andante" z8 | g2 c>d e>f g2 | a2 g>f e2- e/d/e/f/ | g>f e/d/c/B/ B/4A/4B/4A/4B/4A/4B/4A/4 G2- | %4
 G>^A B2- B>A ^B>c | d2- d/e/d/c/ ^B2 c>d | e>d e>c d4- | d>c B>^A G>g f>e | d2 z2 z4 | z4 G2 d>c | %10
 B>^A G2 =G2 ^G>A | B2- B/c/B/^A/ G4- | G3- G/4G/4A/4B/4 c4- | c2- c-c/4c/4d/4e/4 f4- | %14
 f3/2e/4d/4 e>f g3/2f/4e/4 d>^e | f2 z2 g2 c>d | e>f g2 a2 g>f | e2- e/d/e/f/ g2 z2 | z8 | z8 | %20
 z4 z z/ c/ B>A | G>A B2- B-B/4E/4F/4G/4 A>A | A3/2G/4F/4 G>A B>B c>d | e>d e>f d>c d2- | %24
 d3/2c/4^B/4 c-c/4=B/4A/4G/4 F>A G>F | E2- E/D/C/^B,/ D2 z z/ c/ | F2- F/A/G/F/ E/G/^A/^B/ c2 | %27
 z/ B/c/d/ e3/2d/4c/4 B4- | B>G c>B A4- | A>F B>A G4- | %30
 G3/2F/4E/4 F>D E>F E/4D/4E/4D/4E/4D/4E/4D/4 | E/4D/4E/4D/4E/4D/4C/4^B,/4 C2- C>D E>C | %32
 F-F/4d/4e/4f/4 e>d c>B A2 | G z z2 z4 | c4 F3 G | A3 B c4 | =d4 c3 B | A4- A>G A>B | %38
 c2- c/=d/c/B/ A/c/d/e/ f2- | f/=g/f/e/ =d/c/B/A/ A/4G/4A/4G/4A/4G/4F/4E/4 A2- | %40
 A/G/F/G/ A/B/c/d/ e>=d c/B/A/G/ | A3/2B/4c/4 F>f A-A/4G/4F/4G/4 A/4G/4A/4G/4A/4G/4A/ | %42
 A2 z z/ B/ E-E/4F/4E/4D/4 E>F | G2- G/F/G/^A/ B>F B2- | B2- B/^A/4G/4A/^B/ c>d e2- | %45
 e>e d>c ^B3/2A/4G/4 c2- | c-c/4B/4c/4^A/4 B2- B-B/4=A/4B/4G/4 A2 | G>F E2- E>F G>A | %48
 F3/2d/4e/4 f>^B c>d c/4B/4c/4B/4c/4B/4c/ | c>d e>f g3- g/4g/4f/4e/4 | d4- d>c d>e | %51
 f3- f/4f/4e/4d/4 c4- | c>^B c>d e3- e/4e/4d/4c/4 | B4- B>B e>d | c>B A2- A>D G>F | %55
 E>^E F>G A>^A ^B>c | d2 g>f e>d c2 | ^B2 c>d e2- e/f/e/d/ | c2 z2 z4 | z8 | z8 | z8 | z8 | z4 G4 | %64
 C3 D E3 F | G4 A4 | G3 F E4- | E>D E>F G4- | G-G/4C/4D/4E/4 F2- F4- | %69
 F-F/4B,/4C/4D/4 E2- E>C F>E | D>F B>A G>B e>=d | c3 z/ c/ ^B3 z/ d/ | %72
 !fermata!G2 z d/4e/4f/ e/d/c/^B/ c2- | c>d c/4^B/4c/4B/4c/4B/4c/ c2 z2 | z4 c4 | z4 z z/ c/ f>^e | %76
 f>ga>f g3/2a/4b/4 a/g/f/^e/ | f8- | f>^e f>d !fermata!e4 |] %79
V:2
 z8 | z8 | z4 C2 G>F | E>D C2 ^B,2 C>D | E2- E/F/E/D/ C2 D>E | F2 E2- E>D E>F | %6
 G4- G>^A B-B/4A/4G/4=G/4 | G4 d3 c | B3 ^A G4 | =G4 ^G3 ^A | B4- B>c B>^A | %11
 G2- G>=G ^G3- G/4F/4E/4D/4 | E4- E3- E/4E/4F/4G/4 | A4- A>^A c^B/4A/4B/4c/4 | %14
 d2- d3/2c/4^B/4 c2- c>=B | A>F E>D C>^B c2- | c>^A ^B>G E>D E>F | G2- G>A G>[K:alto1]f e/d/c/^B/ | %18
 c2- c/B/^A/G/ A>F B2- | B3/2^A/4G/4 B/4A/4B/4A/4B/4A/4B/ B>=A A/4G/4A/4G/4A/4G/4F/4G/4 | %20
 A>c B>A G2- G>F |[K:alto] E>F E>=D C2 F2- | F>D E2- E>D E>F | G2 c2 F2 z2 | E4 B3 A | G3 F E4 | %26
 D4 E3 F | G4- G>A G>F | E4- E>C F>E | D4- D>B, E>D | C4- C2 ^B,2 | G2 C>D E>F G2 | %32
 A2 G>F E2- E/D/E/F/ | G>A B>c F>=d G3/2A/4B/4 | ^E>G C2- C>C D>E | F>^E F>G A3/2B/4c/4 B/A/G/F/ | %36
 B3/2A/4G/4 A>^E F3/2G/4A/4 D>E | F2 z2 z4 | z8 | z8 | z8 | E2 A,>B, C>=D E2 | %42
 F2 E>=D C2- C/B,/C/^D/ | E>B, E2- E2- E/D/4C/4D/^E/ | F>C F2- F2 E-E/4G/4A/4B/4 | %45
 c2 F2- F2 E3/2D/4C/4 | D2 G>F E>D C>^B, | C4- C>D E>F | D2 z z/4 A/4G/4F/4 E>F G2- | %49
 G2 z2 z z/4 d/4c/4^B/4 c2- | c3- c/4c/4B/4^A/4 B2 z2 | z z/4 c/4B/4^A/4 B2- B3- B/4B/4=A/4G/4 | %52
 A2 z2 z z/4 B/4A/4G/4 A2- | A3- A/4A/4G/4F/4 G4- | G>C F>E D>C ^B,2 | C4- C/C/D/E/ D/C/^B,/^A,/ | %56
 ^B,2- B,/G,/^A,/B,/ C>D E>F | G4 C3 D | E3 F G4 | A4 G3 F | E4- E>D E>F | %61
 G2- G/B,/C/D/ E/F/E/D/ C/E/F/G/ | A/B/A/G/ F/F,/G,/A,/ B,/C/B,/A,/ G,/A,/G,/F,/ | %63
 E,-E,/4G,/4^A,/4^B,/4 C2- C>B, C>D | E2 z2 C2 G>F | E>D C2 ^B,2 C>D | E2- E/F/E/D/ C>G, A,>B, | %67
 C4- C>G, C>B, | A,>G, A,2- A,>F, B,>A, | G,>F, G,4 F,>C | B,>D E>F E>F G2- | G>^E F>G A3 z/ A/ | %72
 !fermata!D2 z ^B c z z z/ D/ | E>F DF- F-F/4F/4^E/4D/4 E>G | %74
 C>B, A,>=D G,-G,/4G/4A/4B/4 A/G/F/^E/ | F>C D>^E F2 c>B | A>G F2 ^E2 F>G | %77
 A2- A/B/A/G/ F2- F/G/F/^E/ | D z z z/ F/ !fermata!G4 |] %79
V:3
 x8 | x8 | x8 | x8 | x8 | x8 | x8 | x8 | x8 | x8 | x8 | x8 | x8 | x8 | x8 | x8 | x8 | x8 | x8 | %19
 x8 | x8 | x8 | x8 | x8 | x8 | x8 | x8 | x8 | x8 | x8 | x8 | x8 | x8 | x8 | x8 | x8 | x8 | x8 | %38
 x8 | x8 | x8 | x8 | x8 | x8 | x8 | x8 | x8 | x8 | x8 | x8 | x8 | x8 | x8 | x8 | x8 | x8 | x8 | %57
 x8 | x8 | x8 | x8 | x8 | x8 | x8 | x8 | x8 | x8 | x8 | x8 | x8 | x8 | x8 | x8 | x8 | x8 | %75
 F3 G A3 B | c4 =d4 | c3 B A4- | A>G A>^B c4 |] %79
V:4
 z8 | z8 | z8 | z8 | z8 | z8 | C2 G,>^A, B,>C D2 | E2 D>C B,2- B,/^A,/B,/C/ | D6 C2- | %9
 C>^A, D>C B,>C B,>A, | G,3/2 D2 =D/ ^D>^A, B,>=G, | G,>D, E,2- E,/F,/E,/D,/ C,2- | %12
 C,-C,/4G,/4A,/4B,/4 C>B, A,>B, A,>G, | F,-F,/4C/4D/4E/4 F>E D>E D>C | ^B,2 G,2- G,2 z2 | %15
 C4 G2- GF | E2- ED C4 | ^B,4 C3 D | E4- E>F E>D | C2 z2 B,4 | E,3 F, G,3 A, | B,4 C4 | %22
 B,3 A, G,4- | G,>F, G,>^A, B,2 z2 | z8 | B,2 E,>F, G,>A, B,2 | =C2 B,>A, G,2- G,/F,/G,/A,/ | %27
 B,2- B,/^A,/B,/C/ D2 z2 | z8 | z8 | C,4 G,3 F, | E,3 D, C,4 | ^B,,4 C,2- C,D, | %33
 E,4- E,>F, E,>=D, | C,>^E, F,>G, A,2 B,2 | C2- C/B,/A,/G,/ F,2 z2 | z4 C2 F,>G, | %37
 A,>B, C2 =D2 C>B, | A,2- A,/G,/A,/B,/ C2- C/F,/G,/^A,/ | B,2 z2 z4 | z8 | z8 | z8 | z8 | z8 | z8 | %46
 z8 | C,2 G,>F, E,>D, C,2 | ^B,,2 C,>D, E,2- E,/F,/E,/D,/ | C,>^B,, C,>D, E, z z2 | %50
 z z/4 D,/4^E,/4=G,/4 ^G,2- G, z z2 | z4 z z/4 C,/4D,/4^E,/4 F,2- | F, z z2 z4 | %53
 z z/4 B,,/4C,/4D,/4 E,2- E,/F,/E,/D,/ C,/E,/F,/G,/ | %54
 A,/B,/A,/G,/ F,/E,/D,/C,/ ^B,,/F,/G,/A,/ G,/F,/E,/D,/ | C,/G,/A,/B,/ A,/G,/F,/^E,/ F,4- | %56
 F,/A,/G,/F,/ E,4 A,2 | G,2 z2 C2 G>F | E>D C2 ^B,2 C>D | E2- E/G/F/E/ D/E/D/C/ ^B,2 | %60
 C>G, C-C/4B,/4A,/4G,/4 A,>F, B,2- | B,2 z2 z4 | z4 E,2 B,>A, | G,>F, E,2 D,2 E,>F, | %64
 G,2- G,/A,/G,/F,/ E,/F,/E,/D,/ C,>G, | C>B, A,>G, F, z z2 | z/ D,/E,/F,/ G,2- G,/A,/G,/F,/ E,2- | %67
 E,/D,/C,/^B,,/ C,4 z z/ C,/ | F,>E, D,>C, D,2- D,>B,, | E,>D, C,>^B,, C,2- C,>F,- | %70
 F,2 z z/ D,/ G,>F, E,>B, | C>B, A,>G, F,3 z/ F,/ | !fermata!F,2 z G, G, z z z/ A,/ | %73
 G,>A, G, z G,2 C>B, | A,>G, F,2 ^E,2 F,>G, | A,2- A,/B,/A,/G,/ F,3 G, | A,>B, C>A, B,>G, A,>B, | %77
 C-C/4C,/4D,/4^E,/4 F,>G, A,>B, C/B,/A,/G,/ | F, z z z/ [F,A,D]/ !fermata![^E,G,C]4 |] %79
V:5
 C,4 G,3 F, | E,3 D, C,4 | ^B,,4 C,3 D, | E,4- E,>F, E,>D, | C,>C,, D,,>E,, F,,>G,, F,,>E,, | %5
 D,,>D, E,>F, G,>A, G,>F, | E,2 C,2 G,4- | G,8- | G,>D, G,>F, E,>C, E,>C, | D,3 D, E,>D, ^E,>=G, | %10
 G,>F, E,2 D,4 | z8 | z8 | z8 | G,2 C,>D, E,>F, G,2 | A,2 G,>F, E,2- E,/D,/E,/F,/ | G,4 z2 z A, | %17
 G,>F, E,2- E,-E,/4F,/4E,/4D,/4 C,2 | z/4 z C,/4D,/4E,/4 F,2- F,-F,/4D,/4E,/4F,/4 G,>F, | %19
 E,>C, F,>E, D,-D,/4B,,/4C,/4D,/4 E,>=D, | C,>B,, C,>D, E,>D, E,>F, | %21
 G,3- G,/4E,/4F,/4G,/4 A,>G, F,>E, | D,>B,, E,2- E,>F, E,>D, | C,4 B,,-B,,/4F,/4G,/4A,/4 B,>A, | %24
 G,>E, A,>C D,3- D,/4B,,/4C,/4D,/4 | E,>D, C,2- C,/C,/B,,/A,,/ G,,/E,,/F,,/G,,/ | %26
 A,,/F,,/G,,/A,,/ B,,>^B,, C,/B,,/C,/D,/ E,2- | E,/D,/E,/F,/ G,2- G,>F, E,>D, | %28
 C,3- C,/4C,,/4D,,/4E,,/4 F,,3- F,,/4E,,/4D,,/4C,,/4 | %29
 B,,,3- B,,,/4B,,/4C,/4D,/4 E,3- E,/4D,/4C,/4B,,/4 | A,,4 G,,4- | G,,8- | G,,3 G,, A,,>G,, F,,2 | %33
 E,,>F,, G,,>B,, B,,4- | B,,3 B,, A,,3 G,, | F,,2 C,>B,, A,,>G,, F,,2 | %36
 ^E,,2 F,,>G,, A,,2- A,,/B,,/A,,/G,,/ | F,, F,2- F,/4E,/4=D,/4C,/4 B,,>E, F,>G, | %38
 A,>G, F,2- F,>E, =D,2- | D,>C, B,,>C, =D,/F,/E,/D,/ C,/B,,/A,,/G,,/ | %40
 F,,>E,, F,,>A,, G,,/E,,/F,,/G,,/ A,,/B,,/C,/=D,/ | C,2 =D,2 E,4- | %42
 E,/=D,/4C,/4D,/B,,/ A,,/4G,,/4A,,/4G,,/4A,,/4G,,/4F,,/4G,,/4 A,,>A, G,>F, | %43
 E,>E,, =D,,>C,, B,,,>B,, A,,>G,, | F,,>F, E,>D, C,-C,/4G,/4^A,/4^B,/4 C>=B, | A,>G, A,>F, G,2 z2 | %46
 G,,4 C,,3 D,, | E,,3 F,, G,,4 | A,,4 G,,3 F,, | E,,4- E,,>D,, E,,>F,, | %50
 G,,4- G,,-G,,/4B,,/4^A,,/4G,,/4 F,,-F,,/4G,,/4F,,/4E,,/4 | D,,>C,, D,,>E,, F,,4- | %52
 F,,-F,,/4A,,/4G,,/4F,,/4 E,,-E,,/4F,,/4E,,/4D,,/4 C,,>B,,, C,,>D,, | E,,4- E,, z z2 | z8 | z8 | %56
 z8 | z z/ G,,/ ^A,,>^B,, C,>D, E,2- | E,-E,/4E,/4F,/4G,/4 A,>A,, G,,/A,/G,/F,/ E,/D,/C,/^B,,/ | %59
 C,/B,/A,/G,/ F,/E,/D,/C,/ ^B,,/C/^B,/^A,/ G,/F,/E,/D,/ | %60
 C,/D,/C,/B,,/ A,,/G,,/F,,/E,,/ F,,/C,/B,,/A,,/ G,,/F,,/E,,/D,,/ | %61
 E,,/B,,/C,/D,/ E,/F,/E,/D,/ C,/E,/F,/G,/ A,/B,/A,/G,/ | %62
 F,/F,,/G,,/A,,/ B,,/C,/B,,/A,,/ G,,/A,,/G,,/F,,/ E,,2- | %63
 E,,2- E,,-E,,/4D,,/4E,,/4F,,/4 G,,/A,/G,/ F,/ E,/D,/C,- | %64
 C,/B,,/A,,/G,,/ A,,/F,,/^B,, C,/A,,/G,,/F,,/ E,,/F,,/E,,/D,,/ | %65
 C,,/G,,/A,,/B,,/ C,/D,/E, z/ D,/E,/F,/ E,/D,/C,/^B,,/ | C,4- C,2- C,/=D,/C,/B,,/ | %67
 A,,2- A,,/A,,/G,,/F,,/ ^E,,2 z2 | z2 z z/ F,,/ B,,-B,,/4C,/4B,,/4A,,/4 G,,2 | %69
 z2 z z/ E,,/ A,,-A,,/4B,,/4A,,/4G,,/4 A,,>^A,, | B,,>A,, G,,>B,, E,>D, C,>E, | %71
 A,>G, F,>E, D,>E, D,>C, | !fermata!^B,,2 z G,, C,>D, E,>F, | G,>F, G,>G,, C,4- | C,8- | C,8- | %76
 C,8- | C,8- | !fermata!C,8 |] %79

